!!!!SEGMENT: pl-lzu--m-15111--001-023_noskowski-zygmunt--spiewnik-dla-dzieci-op-34-23-zielone-swiatki.krn
!!!cenid: 18xx:4720
!!!COM: Noskowski, Zygmunt
!!!COM-rismID: pe106604
!!!CDT: 1846/05/02-1909/07/23
!!!CNT: Polish
!!!GTL: Śpiewnik dla dzieci, op. 34
!!!OTL: 23. Zielone Świątki
!!!OMV: 023
!!!PDT: 1890
!!!AGN: Secular; Song; Children
!!!YEC: Copyright 2022 Narodowy Instytut Fryderyka Chopina (https://polishscores.org)
!!!YEM: License CC-BY-4.0 (https://creativecommons.org/licenses/by/4.0)
!!!SMS-siglum: PL-LŹu
!!!SMS-shelfmark: M 15111
!!!SMS-variant:
!!!SMS-altvar:
!!!SMS-shelfwork: 001-023 G
!!!NIFC-rismSourceID: 1001234040
!!!NIFC-rismChildID: 1001234040
!!!NIFC-islandoraID: pl-lzu:5455
!!!URL-pdf-islandora: https://repozytorium.nifc.pl/islandora/object/pl-lzu%3A5455/datastream/PDF/view
!!!URL-scan: https://polish.musicsources.pl/pl/lokalizacje/galeria/druki-muzyczne/23228/30 @EN{Scan on Polish Music Sources Website} @PL{Skany w portalu Dziedzictwo Muzyki Polskiej w otwartym dostępie}
!!!IIIF:
!!!ONB-nifc:
!!!AIN: 1 piano 1 vox
!!!key: A
!!!OMD: Alla Pollaca.
**kern	**kern	**dynam	**kern	**text	**text	**dynam
*part2	*part2	*part2	*part1	*part1	*part1	*part1
*staff3	*staff2	*staff2/3	*staff1	*staff1	*staff1	*staff1
*I"[Piano]	*I"[Piano]	*	*I"[Voice]	*	*	*
*I'pf	*I'pf	*	*I'V	*	*	*
*Ipiano	*Ipiano	*	*Ivox	*	*	*
*ICklav	*ICklav	*	*ICvox	*	*	*
*IGacmp	*IGacmp	*	*IGsolo	*	*	*
*>[A,A]	*>[A,A]	*>[A,A]	*>[A,A]	*>[A,A]	*>[A,A]	*>[A,A]
*>A	*>A	*>A	*>A	*>A	*>A	*>A
*clefF4	*clefG2	*	*clefG2	*	*	*
*k[f#c#g#]	*k[f#c#g#]	*	*k[f#c#g#]	*	*	*
*A:	*A:	*	*A:	*	*	*
*M3/4	*M3/4	*	*M3/4	*	*	*
=1	=1	=1	=1	=1	=1	=1
!	!LO:TX:a:i:t=Tempo Poloneza.	!	!	!	!	!
8AA\L	4.e/	f	2.r	.	.	.
16AL 16E\	.	.	.	.	.	.
16AJJ 16E\	.	.	.	.	.	.
8AL 8E\	.	.	.	.	.	.
8AJ 8E\	(16c#/LL	.	.	.	.	.
.	16B/JJ	.	.	.	.	.
8F#\L	8A/L)	.	.	.	.	.
8AJ 8D\	8f#'/J	.	.	.	.	.
=2	=2	=2	=2	=2	=2	=2
8AA\L	(24e/LL	.	2.r	.	.	.
.	24f#/	.	.	.	.	.
.	24e/JJ)	.	.	.	.	.
8AJ 8E\	16c#'/LL	.	.	.	.	.
.	16B'/JJ	.	.	.	.	.
8EL 8C#/	4.A/	.	.	.	.	.
8EJ 8C#/	.	.	.	.	.	.
8E 8C#/	.	.	.	.	.	.
8r	16A/LL	.	.	.	.	.
.	16B/JJ	.	.	.	.	.
=3	=3	=3	=3	=3	=3	=3
8AA\L	8c#/L	.	2.r	.	.	.
8AJ 8E\	(16c#/L	.	.	.	.	.
.	16d/JJ	.	.	.	.	.
8C#\L	8e/L)	.	.	.	.	.
8AJ 8E\	(16f#/L	.	.	.	.	.
.	16g#/JJ	.	.	.	.	.
8AA\L	24a/LL	.	.	.	.	.
.	24b/	.	.	.	.	.
.	24a/JJ	.	.	.	.	.
8AJ 8E\	16g#/LL	.	.	.	.	.
.	16a/JJ)	.	.	.	.	.
=4	=4	=4	=4	=4	=4	=4
8GG#\L	(16a#X/LL	.	2.r	.	.	.
.	16cc#/	.	.	.	.	.
8BJ 8E\	16b/	.	.	.	.	.
.	16f#/JJ	.	.	.	.	.
8EE/	8an/L)	.	.	.	.	.
4d 4E\	(24g#/L	.	.	.	.	.
.	24a/	.	.	.	.	.
.	24g#/JJ)	.	.	.	.	.
.	8f#/L	.	.	.	.	.
8d 8E\	8e/J	.	.	.	.	.
!!LO:LB:g=original
=5	=5	=5	=5	=5	=5	=5
*	*	*	*	*v:1	*v:2	*
!	!	!LO:DY:rj	!	!	!	!LO:DY:rj
8AA\L	(8.d#X/L	mf	8.d#X/	Na-	Ma-	mf
8c#J 8E\	.	.	.	.	.	.
.	16e/Jk)	.	16e/	-sza	-ju,	.
8AA\L	4f#/	.	4f#/	i-	ma-	.
16dL 16F#\	.	.	.	.	.	.
16dJJ 16F#\	.	.	.	.	.	.
8dL 8E\	4g#/	.	4g#/	-zba	-ju,	.
8dJ 8E\	.	.	.	.	.	.
=6	=6	=6	=6	=6	=6	=6
8AA\L	4.b/	.	4.b/	u-	świe-	.
16c#L 16E\	.	.	.	.	.	.
16c#JJ 16E\	.	.	.	.	.	.
8c#L 8E\	.	.	.	.	.	.
8c#J 8E\	(8a/L	.	8a/	-ma-	-ży	.
8c# 8E\	8cc#/	.	8cc#\	-jo-	ga-	.
8r	8a/J)	.	8a,/	-na,	-ju,	.
=7	=7	=7	=7	=7	=7	=7
8AA\L	(8.g#/L	.	8.g#/	Ta-	Pach-	.
16dL 16F#\	.	<	.	.	.	<
16dJJ 16F#\	16f#/Jk)	.	16f#/	-ta-	-niesz	.
8dL 8F#\	4a/	.	4a/	-ra-	ty	.
8d 8F#\	.	.	.	.	.	.
8d 8E\	4b/	[	4b/	-kiem	dziś	[
8dJ 8E\	.	.	.	.	.	.
!!LO:LB:g=original
=8	=8	=8	=8	=8	=8	=8
*	*	*	*	*v:1	*v:2	*
8AA\L	4dd\	f	4.dd\	ob-	w ca-	.
16c#L 16E\	.	.	.	.	.	.
16c#JJ 16E\	.	.	.	.	.	.
8c#L 8E\	8ryy	.	.	.	.	.
8eJ 8A\	(8cc#\L	.	8cc#\	-sta-	-łym	.
8c# 8E\	8ee\	.	8ee\	-wio-	kra-	.
8r	8cc#\J)	.	8cc#,\	-na,	-ju,	.
=9	=9	=9	=9	=9	=9	=9
8EE\L	(8b/L	.	8b/	Ta-	Nio-	.
8dJ 8G# 8E\	8e/J)	>	8e/	-ta-	-są	>
8AA\L	4cc#\	.	4cc#\	-ra-	chłop-	.
16c#L 16A 16E\	.	.	.	.	.	.
16c#JJ 16A 16E\	.	.	.	.	.	.
8c# 8A 8E\	(8b/L	]	(8b/L	-kiem,	-cy	]
8r	8a/J)	.	8a/J)	.	.	.
=10	=10	=10	=10	=10	=10	=10
8CC#\L	(8g#/L	.	8g#/	wo-	ga-	.
8c#J 8G# 8C#\	8c#/J)	.	8c#/	-dną	-łą-	.
8FF#\L	4a/	.	4a/	trzci-	-zecz-	.
16AL 16F# 16C#\	.	.	.	.	.	.
16AJJ 16F# 16C#\	.	.	.	.	.	.
8A 8F# 8C#\	(8g#/L	.	(8g#/L	-ną	-ki,	.
8r	8f#/J)	.	8f#,/J)	.	.	.
!!LO:PB:g=original
=11	=11	=11	=11	=11	=11	=11
*	*	*	*	*v:1	*v:2	*
*	*^	*	*	*	*	*
!	!	!	!	!	!	!	!LO:DY:rj
8AA\L	(>8e#X/L	4ryy	.	8e#X/	I	Wi-	p
8AJ 8F# 8C#\	8f#/J	.	<	8f#/	cze-	-ją	<
8FF#\L	8g#/L	4d\	.	8g#/	-rem-	wian-	.
8AJ 8D\	8f#/J	.	.	8f#/	-chą,	-ki	.
8BBB\L	8b/L	4d#X\	.	8b/	i	pa-	.
8AJ 8D#X 8BB\	8a/J)	.	[	8a/	ka-	-nie-	[
*	*v	*v	*	*	*	*	*
=12	=12	=12	=12	=12	=12	=12
*	*	*	*^	*	*	*
8EE\L	4cc# 4g# 4e/	.	4cc#/	2ryy	-li-	-ne-	.
16c#L 16G# 16E\	.	.	.	.	.	.	.
16c#JJ 16G# 16E\	.	.	.	.	.	.	.
8BL 8G# 8E\	4cc# 4g# 4e/	.	4b/	.	-ną,	-czki,	.
8BJ 8G# 8E\	.	.	.	.	.	.	.
8B 8G# 8E\	8r	.	8r	8ryy	.	.	.
!	!	!	!LO:TX:a:i:t=Chór.	!	!	!	!LO:DY:rj
8r	8e/	.	8e/	8e\	Zie-	Zie-	f
*	*	*	*v	*v	*	*	*
=13	=13	=13	=13	=13	=13	=13
!	!	!LO:DY:rj	!	!	!	!
8EE\L	4.dd 4.b\	f	4.dd 4.b\	-lo-	-lo-	.
16dL 16G# 16E\	.	.	.	.	.	.
16dJJ 16G# 16E\	.	.	.	.	.	.
8dL 8G# 8E\	.	.	.	.	.	.
8dJ 8G# 8E\	8cc# 8a\	.	8cc# 8a\	-ne	-ne	.
8d 8G# 8E\	8bL 8e/	.	8b 8e/	Świę-	Świę-	.
8r	8eJ 8d/	.	8e 8d/	-ta.	-ta.	.
!!LO:LB:g=original
=14	=14	=14	=14	=14	=14	=14
*	*	*	*	*v:1. 2. 3.	*	*
*	*	*	*^	*	*	*
8AA\L	8.aL 8.c#/	.	8.a 8.c#/	2ryy	La,	.	.
8c#J 8A 8E\	.	.	.	.	.	.	.
.	16bJk 16e/	.	16b 16e/	.	la	.	.
8c#L 8A 8E\	4cc# 4a\	.	4cc# 4a\	.	la!	.	.
8c#J 8A 8E\	.	.	.	.	.	.	.
8c# 8A 8E\	8r	.	8r	8ryy	.	.	.
8r	8e/	.	8e/	8e\	Zie-	.	.
*	*	*	*v	*v	*	*	*
=15	=15	=15	=15	=15	=15	=15
8EE\L	4.g# 4.d/	.	4.g# 4.d/	-lo-	.	.
16BL 16E\	.	.	.	.	.	.
16BJJ 16E\	.	.	.	.	.	.
8BL 8E\	.	.	.	.	.	.
8B 8E\	8f#L 8d/	.	8f# 8d/	-ne	.	.
8B 8E\	8e 8d/	.	8e 8d/	Świę-	.	.
8G#J 8E\	8bJ 8d/	.	8b 8d/	-ta.	.	.
=16	=16	=16	=16	=16	=16	=16
8AL 8AA/	8aL 8c#/	.	8a 8c#/	La,	.	.
8EJ 8EE/	(16cc#L 16e/	.	(16cc#LL 16e/	la,	.	.
.	16bJJ 16d/)	.	16bJJ 16d/)	.	.	.
4E 4EE^/	4b 4e 4d^/	.	4b 4d^/	la,	.	.
8E 8AA/	8a 8e 8c#/	.	8a 8c#/	la!	.	.
8r	8r	.	8r	.	.	.
=:|!	=:|!	=:|!	=:|!	=:|!	=:|!	=:|!
*-	*-	*-	*-	*-	*-	*-
!!!system-decoration: p1{p2}
!!!RDF**kern: > = above
!!!RDF**kern: < = below
!!!ENC: Andrzej Gręziak
!!!END: 2025-03-05
!!!ENC: Marta Lawrence
!!!END: 2025-03-21
